easy/OveraktivitetMenuikon.svg

<svg viewBox="603.622 111.666 539.245 198.954" xmlns="http://www.w3.org/2000/svg"><defs><clipPath id="OveraktivitetMenuikon_svg__a"><path fill="#323f51" d="M0 0h35.569v27.465H0z" data-name="Rectangle 374"/></clipPath></defs><g data-name="Group 1057"><path d="M-1878.457-8882.745h24.004c174.536-12.735 197.046 37.657 140.947 94.538-47.927 48.595-85.732 47.199-132.581 54.28l-141.312-7.99c-61.71-.551-106.159-14.385-126.29-22.748-192.125-79.806 136.463-130.43 235.232-118.08Z" data-name="Path 1346" style="fill:#fafafa" transform="rotate(1.24 -416746.38 124766.994)"/><g fill="#903" data-name="Group 907"><path d="M912.271 237.38h72.7a5.3 5.3 0 0 1 5.3 5.3 5.3 5.3 0 0 1-5.3 5.3h-72.7a5.3 5.3 0 0 1-5.3-5.3 5.3 5.3 0 0 1 5.3-5.3Z" data-name="Path 211"/><path d="M967.766 220.168a5.3 5.3 0 0 1 3.751 1.553l17.2 17.213a5.3 5.3 0 0 1 0 7.5l-17.2 17.215a5.3 5.3 0 0 1-7.5 0 5.3 5.3 0 0 1 0-7.493l13.46-13.472-13.46-13.466a5.3 5.3 0 0 1 0-7.5 5.288 5.288 0 0 1 3.75-1.55Z" data-name="Path 212"/></g><text x="-2122.05" y="-8830.818" data-name="SYMPTOMER FRA MAVEN" style="fill:#903;font-family:&quot;Roboto Slab&quot;;font-size:30px;font-weight:800;letter-spacing:3px;white-space:pre" transform="translate(2794.37 9010.044)">Jeg ønsker at balancere<tspan x="-2122.05" dy="1em">​</tspan>mit aktivitetsniveau</text></g><path fill="#323f51" d="M1779.581 1798.383c1.779-.832 7.024-3.289 6.673-5.909a3.37 3.37 0 0 1 .376-.319c-.741-.076-.292-.636.094-.085a7.814 7.814 0 0 1-.392-1.658c-2.631.153-15.187-2.376-14.338.068-.62-1.016-.89-.153-1-.056.173.223.365.432.573.624-1.477.822-2.258 1.866.117 2.18 2.654.351 5.444.631 8.205.819a14.648 14.648 0 0 1-3.223 2.189l-.389.185c.476-.471.865-.962.132-.7-.26.286-.478.607-.649.954-2.484 1.261-4.259 2.761-3.685 3.921.063.874.91 1.106 1.753 1.208l-.068.032.068-.032c.022.016-.013.019-.068.032-.1.048.16.156.229.17.081-.09.1-.142.087-.175l.194.019c.615.157 1.239.274 1.869.351.617.078 2.271.346 4.134.5.059.219.129.377.214.276-.028.034-.01-.09.021-.255.556.041 1.126.069 1.693.082-.206.122-.587.216-.451.3.22-.044.424-.148.589-.3.062 0 .125.006.188.006.112.141.417.147.959-.015 2.248-.091 4.117-.609 4.117-2.114 0-1.938-4.192-2.279-8.02-2.3m-2.091-8.506a1.13 1.13 0 0 1-.123.17h-.213c-.016-.244.156-.7.336-.169m-.862.084c.044-.122.1-.166.157-.132-.01.091-.019.15-.028.213h-.13v-.079m-.363.074h-.12a3.424 3.424 0 0 1-.09-.236s-.016-.034-.044-.113c.117-.072.214.166.254.352m-3.872.537s.1-.013.189-.016a.21.21 0 0 1-.189.016" clip-path="url(#OveraktivitetMenuikon_svg__a)" data-name="Path 1341" transform="translate(7.825 -273.023)"/><path fill="#323f51" d="M1805.735 1789.42c-.007-1.594-5.945-1.86-10.132-1.9.189-.189.379-.389.568-.609.134-.044.263-.101.386-.169a1.65 1.65 0 0 1-.094-.182c.028-.034.054-.063.081-.1.021.079.037.16.048.242.324-.445.683-.865 1.071-1.255a.23.23 0 0 0 .087.088c.056.025.076-.107.054-.235 2.048-2.121 5.5-5.265 4.556-6.341.053-.022.1-.037.153-.06.3.057.323-.079.28-.236.135-.025.21-.047.2-.072a3.822 3.822 0 0 0-.429-.581c.053-.455-.68-.691-.871-1.009.069.106.117.226.142.351a4.718 4.718 0 0 0-.515-.31c.308-.2-.1-.258-.344-.156a6.729 6.729 0 0 0-1.053-.339c.129-.825-.208-.269-.172-.041a25.418 25.418 0 0 0-5.532-.25 1.368 1.368 0 0 0-.157.015 2.263 2.263 0 0 1-.6-.511c-.046-.079-.037-.1-.009-.113a4.772 4.772 0 0 1-.818.3.501.501 0 0 0 0-.164c-.018-.06-.078.057-.106.192-1.36.346-3.3.417-3.121.021-.363.791-.622.489-.558 1.572-.276-2.3.034.913-.247-.529.016.088.076.363.139.675-1.379.533-2.066 1.06-.465 1.286.159.021.439.038.806.05-.028.1-.037.185.018.235.011-.078.018-.155.022-.233 1.511.047 4.5.018 7.319-.057a.304.304 0 0 0-.181.314c-.029 1.069.369-.11.429-.32l.976-.028c.069.1.144.144.22.109.076-.035.137-.084.207-.123l.827-.029a.483.483 0 0 0-.115.317c-.046.476.229-.185.229-.322l.5-.019c-.26.239-.323.363-.3.42a36.123 36.123 0 0 0-4.096 3.663.145.145 0 0 0-.069-.081c-.132-.063-.214.142-.141.294a54.998 54.998 0 0 0-4.332 4.945.6.6 0 0 0-.056.694.703.703 0 0 0-.119.369 5.474 5.474 0 0 0 2.1.837c.938.4.743.232.443.029.241.068.495.131.758.189.075 1.053 1.59.712 2.42.42.4.051.807.1 1.217.134a.336.336 0 0 0-.1.279c.032.4.313-.025.382-.254.73.062 1.465.1 2.182.113-.106.07-.2.138-.253.117.092.038.257-.04.4-.116.681.01 1.342 0 1.957-.041 2.188-.138 3.811-.6 3.807-1.486m-5.4-8.9-.075.106a.274.274 0 0 1 .075-.106m1.288-1.7a.239.239 0 0 1-.019.144Zm-1.892 2.728.085-.148c.2.151.053.2-.085.148m.5.669c-.561-1.135.806.417 0 0m.332-.37c-.711-.721-.07-.226-.032-.173.073.1.085.161.032.173m.433-.348c.05.37-1.509-.753 0 0m-10.341-4.851c-.014.153-.04.305-.079.455-.081-.155-.038-1.081.079-.455m-.238.041c.006.254.006.393 0 .46a1.276 1.276 0 0 1-.048-.313c.007-.125.023-.175.046-.147m-1.008-.21h-.082c.019-.084.138-.637.082 0m.746.153c.113-.248.2.21.22.533-.037.01-.072.022-.109.031a8.798 8.798 0 0 1-.112-.564m9.379 2.259.333-.015c-.06.04-.123.085-.186.128a.285.285 0 0 0-.147-.113m-4.905 11.55.336.057c-.277.032-.374-.015-.336-.057" clip-path="url(#OveraktivitetMenuikon_svg__a)" data-name="Path 1342" transform="translate(7.825 -273.023)"/><path fill="#323f51" d="M1790.215 1790.046c.437.288.986.35 1.477.169 0 0-1.875-.78-1.477-.169" clip-path="url(#OveraktivitetMenuikon_svg__a)" data-name="Path 1343" transform="translate(7.825 -273.023)"/></svg>

<?xml version="1.0" encoding="utf-8"?>
<svg xmlns="http://www.w3.org/2000/svg" xmlns:bx="https://boxy-svg.com" viewBox="603.622 111.666 539.245 198.954">
  <defs>
    <clipPath id="clip-path">
      <rect id="Rectangle_374" data-name="Rectangle 374" width="35.569" height="27.465" fill="#323f51"/>
    </clipPath>
    
  </defs>
  <g id="g-1" data-name="Group 1057" transform="matrix(1, 0, 0, 1, 2794.369147, 9010.043528)">
    <path id="path-1" data-name="Path 1346" d="M -1878.457 -8882.745 L -1854.453 -8882.745 C -1679.917 -8895.48 -1657.407 -8845.088 -1713.506 -8788.207 C -1761.433 -8739.612 -1799.238 -8741.008 -1846.087 -8733.927 L -1987.399 -8741.917 C -2049.109 -8742.468 -2093.558 -8756.302 -2113.689 -8764.665 C -2305.814 -8844.471 -1977.226 -8895.095 -1878.457 -8882.745 Z" style="fill: rgb(250, 250, 250);" transform="matrix(0.999766, 0.021645, -0.021645, 0.999766, -191.306219, 39.627343)"/>
    <g id="g-2" data-name="Group 907" transform="matrix(1, 0, 0, 1, -1887.399658, -8789.875977)">
      <path id="path-2" data-name="Path 211" d="M-4852.995,7768.923h72.7a5.3,5.3,0,0,1,5.3,5.3,5.3,5.3,0,0,1-5.3,5.3h-72.7a5.3,5.3,0,0,1-5.3-5.3A5.3,5.3,0,0,1-4852.995,7768.923Z" transform="translate(4858.297 -7751.711)" fill="#903"/>
      <path id="path-3" data-name="Path 212" d="M-4833.6,7762.906a5.3,5.3,0,0,1,3.751,1.553l17.2,17.213a5.3,5.3,0,0,1,0,7.5l-17.2,17.215a5.3,5.3,0,0,1-7.5,0,5.3,5.3,0,0,1,0-7.493l13.459-13.472-13.459-13.466a5.3,5.3,0,0,1,0-7.5A5.288,5.288,0,0,1-4833.6,7762.906Z" transform="translate(4894.397 -7762.906)" fill="#903"/>
    </g>
    <text id="text-1" data-name="SYMPTOMER&#10;FRA MAVEN" style="fill: rgb(153, 0, 51); font-family: &quot;Roboto Slab&quot;; font-size: 30px; font-weight: 800; letter-spacing: 3px; white-space: pre;" x="-2122.05" y="-8830.818">Jeg ønsker at balancere<tspan x="-2122.050048828125" dy="1em">​</tspan>mit aktivitetsniveau</text>
  </g>
  <g id="g-10" data-name="Group 906" transform="matrix(1, 0, 0, 1, -366.158319, -105.537908)"/>
  <path id="Path_1341" data-name="Path 1341" d="M 1779.581 1798.383 C 1781.36 1797.551 1786.605 1795.094 1786.254 1792.474 C 1786.371 1792.359 1786.497 1792.252 1786.63 1792.155 C 1785.889 1792.079 1786.338 1791.519 1786.724 1792.07 C 1786.533 1791.533 1786.402 1790.977 1786.332 1790.412 C 1783.701 1790.565 1771.145 1788.036 1771.994 1790.48 C 1771.374 1789.464 1771.104 1790.327 1770.994 1790.424 C 1771.167 1790.647 1771.359 1790.856 1771.567 1791.048 C 1770.09 1791.87 1769.309 1792.914 1771.684 1793.228 C 1774.338 1793.579 1777.128 1793.859 1779.889 1794.047 C 1778.917 1794.917 1777.833 1795.653 1776.666 1796.236 C 1776.534 1796.298 1776.408 1796.359 1776.277 1796.421 C 1776.753 1795.95 1777.142 1795.459 1776.409 1795.721 C 1776.149 1796.007 1775.931 1796.328 1775.76 1796.675 C 1773.276 1797.936 1771.501 1799.436 1772.075 1800.596 C 1772.138 1801.47 1772.985 1801.702 1773.828 1801.804 L 1773.76 1801.836 C 1773.741 1801.846 1773.806 1801.814 1773.828 1801.804 C 1773.85 1801.82 1773.815 1801.823 1773.76 1801.836 C 1773.66 1801.884 1773.92 1801.992 1773.989 1802.006 C 1774.07 1801.916 1774.089 1801.864 1774.076 1801.831 L 1774.27 1801.85 C 1774.885 1802.007 1775.509 1802.124 1776.139 1802.201 C 1776.756 1802.279 1778.41 1802.547 1780.273 1802.701 C 1780.332 1802.92 1780.402 1803.078 1780.487 1802.977 C 1780.459 1803.011 1780.477 1802.887 1780.508 1802.722 C 1781.064 1802.763 1781.634 1802.791 1782.201 1802.804 C 1781.995 1802.926 1781.614 1803.02 1781.75 1803.104 C 1781.97 1803.06 1782.174 1802.956 1782.339 1802.804 C 1782.401 1802.804 1782.464 1802.81 1782.527 1802.81 C 1782.639 1802.951 1782.944 1802.957 1783.486 1802.795 C 1785.734 1802.704 1787.603 1802.186 1787.603 1800.681 C 1787.603 1798.743 1783.411 1798.402 1779.583 1798.381 M 1777.492 1789.875 C 1777.457 1789.935 1777.415 1789.992 1777.369 1790.045 L 1777.156 1790.045 C 1777.14 1789.801 1777.312 1789.345 1777.492 1789.876 M 1776.63 1789.96 C 1776.674 1789.838 1776.73 1789.794 1776.787 1789.828 C 1776.777 1789.919 1776.768 1789.978 1776.759 1790.041 L 1776.629 1790.041 C 1776.629 1790.004 1776.629 1789.962 1776.629 1789.962 M 1776.266 1790.036 L 1776.146 1790.036 C 1776.121 1789.98 1776.087 1789.889 1776.056 1789.8 C 1776.056 1789.8 1776.04 1789.766 1776.012 1789.687 C 1776.129 1789.615 1776.226 1789.853 1776.266 1790.039 M 1772.394 1790.576 C 1772.394 1790.576 1772.494 1790.563 1772.583 1790.56 C 1772.526 1790.595 1772.456 1790.601 1772.394 1790.576" fill="#323f51" clip-path="url(#clip-path)" transform="matrix(1, 0, 0, 1, 7.824957, -273.022879)"/>
  <path id="Path_1342" data-name="Path 1342" d="M 1805.735 1789.42 C 1805.728 1787.826 1799.79 1787.56 1795.603 1787.52 C 1795.792 1787.331 1795.982 1787.131 1796.171 1786.911 C 1796.305 1786.867 1796.434 1786.81 1796.557 1786.742 C 1796.522 1786.683 1796.49 1786.622 1796.463 1786.56 C 1796.491 1786.526 1796.517 1786.497 1796.544 1786.46 C 1796.565 1786.539 1796.581 1786.62 1796.592 1786.702 C 1796.916 1786.257 1797.275 1785.837 1797.663 1785.447 C 1797.683 1785.483 1797.713 1785.514 1797.75 1785.535 C 1797.806 1785.56 1797.826 1785.428 1797.804 1785.3 C 1799.852 1783.179 1803.304 1780.035 1802.36 1778.959 C 1802.413 1778.937 1802.46 1778.922 1802.513 1778.899 C 1802.813 1778.956 1802.836 1778.82 1802.793 1778.663 C 1802.928 1778.638 1803.003 1778.616 1802.993 1778.591 C 1802.868 1778.384 1802.725 1778.189 1802.564 1778.01 C 1802.617 1777.555 1801.884 1777.319 1801.693 1777.001 C 1801.762 1777.107 1801.81 1777.227 1801.835 1777.352 C 1801.67 1777.238 1801.498 1777.134 1801.32 1777.042 C 1801.628 1776.842 1801.22 1776.784 1800.976 1776.886 C 1800.635 1776.744 1800.282 1776.631 1799.923 1776.547 C 1800.052 1775.722 1799.715 1776.278 1799.751 1776.506 C 1797.921 1776.221 1796.066 1776.138 1794.219 1776.256 C 1794.166 1776.258 1794.114 1776.263 1794.062 1776.271 C 1793.834 1776.137 1793.63 1775.964 1793.462 1775.76 C 1793.416 1775.681 1793.425 1775.66 1793.453 1775.647 C 1793.19 1775.772 1792.916 1775.872 1792.635 1775.947 C 1792.644 1775.892 1792.644 1775.837 1792.635 1775.783 C 1792.617 1775.723 1792.557 1775.84 1792.529 1775.975 C 1791.169 1776.321 1789.229 1776.392 1789.408 1775.996 C 1789.045 1776.787 1788.786 1776.485 1788.85 1777.568 C 1788.574 1775.268 1788.884 1778.481 1788.603 1777.039 C 1788.619 1777.127 1788.679 1777.402 1788.742 1777.714 C 1787.363 1778.247 1786.676 1778.774 1788.277 1779 C 1788.436 1779.021 1788.716 1779.038 1789.083 1779.05 C 1789.055 1779.15 1789.046 1779.235 1789.101 1779.285 C 1789.112 1779.207 1789.119 1779.13 1789.123 1779.052 C 1790.634 1779.099 1793.623 1779.07 1796.442 1778.995 C 1796.319 1779.048 1796.246 1779.176 1796.261 1779.309 C 1796.232 1780.378 1796.63 1779.199 1796.69 1778.989 L 1797.666 1778.961 C 1797.735 1779.061 1797.81 1779.105 1797.886 1779.07 C 1797.962 1779.035 1798.023 1778.986 1798.093 1778.947 C 1798.375 1778.938 1798.651 1778.928 1798.92 1778.918 C 1798.845 1779.006 1798.804 1779.119 1798.805 1779.235 C 1798.759 1779.711 1799.034 1779.05 1799.034 1778.913 L 1799.534 1778.894 C 1799.274 1779.133 1799.211 1779.257 1799.234 1779.314 C 1797.778 1780.429 1796.408 1781.654 1795.138 1782.977 C 1795.126 1782.942 1795.101 1782.913 1795.069 1782.896 C 1794.937 1782.833 1794.855 1783.038 1794.928 1783.19 C 1793.387 1784.75 1791.94 1786.402 1790.596 1788.135 C 1790.431 1788.33 1790.409 1788.609 1790.54 1788.829 C 1790.467 1788.938 1790.425 1789.066 1790.421 1789.198 C 1791.055 1789.62 1791.77 1789.905 1792.521 1790.035 C 1793.459 1790.435 1793.264 1790.267 1792.964 1790.064 C 1793.205 1790.132 1793.459 1790.195 1793.722 1790.253 C 1793.797 1791.306 1795.312 1790.965 1796.142 1790.673 C 1796.542 1790.724 1796.949 1790.773 1797.359 1790.807 C 1797.284 1790.879 1797.248 1790.982 1797.259 1791.086 C 1797.291 1791.486 1797.572 1791.061 1797.641 1790.832 C 1798.371 1790.894 1799.106 1790.932 1799.823 1790.945 C 1799.717 1791.015 1799.623 1791.083 1799.57 1791.062 C 1799.662 1791.1 1799.827 1791.022 1799.97 1790.946 C 1800.651 1790.956 1801.312 1790.946 1801.927 1790.905 C 1804.115 1790.767 1805.738 1790.305 1805.734 1789.419 M 1800.334 1780.519 L 1800.259 1780.625 C 1800.275 1780.584 1800.301 1780.548 1800.334 1780.519 M 1801.622 1778.819 C 1801.631 1778.867 1801.624 1778.918 1801.603 1778.963 Z M 1799.73 1781.547 C 1799.758 1781.497 1799.787 1781.447 1799.815 1781.399 C 1800.015 1781.55 1799.868 1781.599 1799.73 1781.547 M 1800.23 1782.216 C 1799.669 1781.081 1801.036 1782.633 1800.23 1782.216 M 1800.562 1781.846 C 1799.851 1781.125 1800.492 1781.62 1800.53 1781.673 C 1800.603 1781.773 1800.615 1781.834 1800.562 1781.846 M 1800.995 1781.498 C 1801.045 1781.868 1799.486 1780.745 1800.995 1781.498 M 1790.654 1776.647 C 1790.64 1776.8 1790.614 1776.952 1790.575 1777.102 C 1790.494 1776.947 1790.537 1776.021 1790.654 1776.647 M 1790.416 1776.688 C 1790.422 1776.942 1790.422 1777.081 1790.416 1777.148 C 1790.387 1777.046 1790.371 1776.941 1790.368 1776.835 C 1790.375 1776.71 1790.391 1776.66 1790.414 1776.688 M 1789.406 1776.478 L 1789.324 1776.478 C 1789.343 1776.394 1789.462 1775.841 1789.406 1776.478 M 1790.152 1776.631 C 1790.265 1776.383 1790.352 1776.841 1790.372 1777.164 C 1790.335 1777.174 1790.3 1777.186 1790.263 1777.195 C 1790.232 1777.069 1790.195 1776.885 1790.151 1776.631 M 1799.53 1778.89 L 1799.863 1778.875 C 1799.803 1778.915 1799.74 1778.96 1799.677 1779.003 C 1799.642 1778.95 1799.59 1778.91 1799.53 1778.89 M 1794.625 1790.44 L 1794.961 1790.497 C 1794.684 1790.529 1794.587 1790.482 1794.625 1790.44" fill="#323f51" clip-path="url(#clip-path)" transform="matrix(1, 0, 0, 1, 7.824957, -273.022879)"/>
  <path id="Path_1343" data-name="Path 1343" d="M 1790.215 1790.046 C 1790.652 1790.334 1791.201 1790.396 1791.692 1790.215 C 1791.692 1790.215 1789.817 1789.435 1790.215 1790.046" fill="#323f51" clip-path="url(#clip-path)" transform="matrix(1, 0, 0, 1, 7.824957, -273.022879)"/>
  <path id="Path_1164" data-name="Path 1164" d="M 737.853 1938.055" fill="none" stroke="#323f51" stroke-width="4.5" transform="matrix(1, 0, 0, 1, 7.824957, -273.022879)"/>
</svg>
